public/icon-text.svg

<svg width="500" height="500" viewBox="0 0 500 500" fill="none" xmlns="http://www.w3.org/2000/svg">
<g clip-path="url(#clip0_281_19)">
<path opacity="0.44" d="M314.547 21.1889L27.3008 166.277C20.5419 169.69 17.8303 177.937 21.2442 184.696L166.332 471.942C169.746 478.701 177.992 481.413 184.751 477.999L471.998 332.911C478.757 329.497 481.468 321.251 478.054 314.492L332.967 27.2455C329.553 20.4866 321.306 17.775 314.547 21.1889Z" fill="#0DBAB5" fill-opacity="0.25"/>
<path opacity="0.44" d="M391.005 58.8502L71.0292 93.1491C63.5002 93.9561 58.051 100.714 58.858 108.243L93.1569 428.219C93.9639 435.748 100.722 441.197 108.251 440.39L428.226 406.091C435.755 405.284 441.205 398.526 440.397 390.997L406.099 71.0214C405.292 63.4924 398.534 58.0432 391.005 58.8502Z" fill="#0DBAB5" fill-opacity="0.25"/>
<g filter="url(#filter0_d_281_19)">
<path d="M227.78 275.486L183.166 288.522L180.69 309C180.086 314.039 180.074 317.639 180.729 319.879C181.247 321.652 182.537 322.946 184.599 323.762C186.674 324.625 190.513 324.415 196.189 323.212L197.103 326.339L160.842 336.934L159.928 333.807C164.49 331.563 167.289 329.529 168.294 327.767C170.396 324.215 171.947 317.734 173.066 308.391L185.865 201.726L188.852 200.853L256.948 284.995C262.418 291.754 266.817 295.889 270.099 297.412C273.427 298.921 277.449 299.164 282.244 298.067L283.158 301.194L237.704 314.475L236.79 311.349C241.295 309.779 244.204 308.119 245.409 306.348C246.66 304.564 246.99 302.746 246.444 300.879C245.722 298.406 243.443 294.766 239.588 290.068L227.793 275.532L227.78 275.486ZM223.559 269.881L190.396 229.021L183.938 281.458L223.512 269.895L223.559 269.881Z" fill="#F0F8FF"/>
<path d="M331.346 274.906C325.165 283.398 321.175 288.464 319.441 289.984C316.77 292.284 313.769 293.971 310.315 294.98C304.948 296.548 299.983 296.024 295.406 293.36C290.828 290.696 287.684 286.347 285.938 280.373C284.834 276.593 284.706 273.034 285.628 269.777C286.829 265.221 289.793 260.455 294.537 255.371C299.282 250.287 307.649 243.385 319.564 234.585L318.664 231.505C316.4 223.758 313.632 218.793 310.314 216.622C306.995 214.451 302.979 214.055 298.312 215.418C294.765 216.455 292.205 218.266 290.664 220.793C289.076 223.334 288.657 225.888 289.38 228.361L291.012 233.253C291.776 235.867 291.709 238.064 290.765 239.86C289.82 241.655 288.312 242.906 286.165 243.534C284.018 244.161 282.12 243.905 280.391 242.84C278.601 241.742 277.361 239.927 276.625 237.407C275.207 232.553 276.371 227.35 280.165 221.785C283.972 216.265 290.372 212.167 299.379 209.535C306.285 207.517 312.273 207.033 317.388 208.071C321.267 208.863 324.484 210.86 327.175 214.177C328.911 216.304 330.884 221.147 333.079 228.661L340.797 255.074C342.965 262.494 344.428 266.98 345.199 268.579C345.97 270.177 346.764 271.16 347.581 271.53C348.398 271.899 349.226 271.96 350.066 271.715C350.953 271.456 351.692 271.037 352.269 270.413C353.218 269.325 354.951 266.59 357.316 262.202L358.706 266.962C354.841 277.31 350.016 283.329 344.229 285.02C341.475 285.825 338.949 285.499 336.757 284.063C334.564 282.627 332.756 279.559 331.313 274.966L331.346 274.906ZM329.737 269.399L321.078 239.765C313.533 245.667 308.675 249.67 306.624 251.839C302.867 255.622 300.41 259.176 299.288 262.442C298.165 265.708 298.058 268.981 298.999 272.201C300.185 276.261 302.394 279.313 305.612 281.311C308.829 283.308 312.011 283.797 315.185 282.87C319.478 281.615 324.34 277.105 329.69 269.413L329.737 269.399Z" fill="#F0F8FF"/>
</g>
</g>
<defs>
<filter id="filter0_d_281_19" x="159.928" y="200.854" width="202.778" height="140.081" filterUnits="userSpaceOnUse" color-interpolation-filters="sRGB">
<feFlood flood-opacity="0" result="BackgroundImageFix"/>
<feColorMatrix in="SourceAlpha" type="matrix" values="0 0 0 0 0 0 0 0 0 0 0 0 0 0 0 0 0 0 127 0" result="hardAlpha"/>
<feOffset dx="2" dy="2"/>
<feGaussianBlur stdDeviation="1"/>
<feComposite in2="hardAlpha" operator="out"/>
<feColorMatrix type="matrix" values="0 0 0 0 0 0 0 0 0 0.364706 0 0 0 0 0.352941 0 0 0 0.1 0"/>
<feBlend mode="normal" in2="BackgroundImageFix" result="effect1_dropShadow_281_19"/>
<feBlend mode="normal" in="SourceGraphic" in2="effect1_dropShadow_281_19" result="shape"/>
</filter>
<clipPath id="clip0_281_19">
<rect width="402.516" height="402.516" fill="white" transform="translate(0 112.894) rotate(-16.2883)"/>
</clipPath>
</defs>
</svg>

<?xml version="1.0" encoding="UTF-8"?>
<svg id="Vrstva_2" data-name="Vrstva 2" xmlns="http://www.w3.org/2000/svg" xmlns:xlink="http://www.w3.org/1999/xlink" viewBox="0 0 499.25 499.25">
  <defs>
    <style>
      .cls-1 {
        fill: none;
      }

      .cls-2 {
        fill: rgba(13, 186, 181, .15);
        isolation: isolate;
        opacity: .44;
      }

      .cls-3 {
        fill: #f0f8ff;
      }

      .cls-4 {
        clip-path: url(#clippath);
      }
    </style>
    <clipPath id="clippath">
      <rect class="cls-1" x="48.37" y="48.37" width="402.52" height="402.52" transform="translate(-59.99 80.03) rotate(-16.29)"/>
    </clipPath>
  </defs>
  <g id="Vrstva_1-2" data-name="Vrstva 1">
    <g class="cls-4">
      <g>
        <path class="cls-2" d="M314.55,21.19L27.3,166.28c-6.76,3.41-9.47,11.66-6.06,18.42l145.09,287.25c3.41,6.76,11.66,9.47,18.42,6.06l287.25-145.09c6.76-3.41,9.47-11.66,6.06-18.42L332.97,27.25c-3.41-6.76-11.66-9.47-18.42-6.06Z"/>
        <path class="cls-2" d="M391.01,58.85L71.03,93.15c-7.53.81-12.98,7.56-12.17,15.09l34.3,319.98c.81,7.53,7.57,12.98,15.09,12.17l319.98-34.3c7.53-.81,12.98-7.57,12.17-15.09l-34.3-319.98c-.81-7.53-7.57-12.98-15.09-12.17Z"/>
        <g>
          <path class="cls-3" d="M227.78,275.49l-44.61,13.04-2.48,20.48c-.6,5.04-.62,8.64.04,10.88.52,1.77,1.81,3.07,3.87,3.88,2.07.86,5.91.65,11.59-.55l.91,3.13-36.26,10.6-.91-3.13c4.56-2.24,7.36-4.28,8.37-6.04,2.1-3.55,3.65-10.03,4.77-19.38l12.8-106.66,2.99-.87,68.1,84.14c5.47,6.76,9.87,10.89,13.15,12.42,3.33,1.51,7.35,1.75,12.14.65l.91,3.13-45.45,13.28-.91-3.13c4.51-1.57,7.41-3.23,8.62-5,1.25-1.78,1.58-3.6,1.04-5.47-.72-2.47-3-6.11-6.86-10.81l-11.79-14.54v-.05ZM223.56,269.88l-33.16-40.86-6.46,52.44,39.57-11.56h.05Z"/>
          <path class="cls-3" d="M331.35,274.91c-6.18,8.49-10.17,13.56-11.9,15.08-2.67,2.3-5.67,3.99-9.13,5-5.37,1.57-10.33,1.04-14.91-1.62-4.58-2.66-7.72-7.01-9.47-12.99-1.1-3.78-1.23-7.34-.31-10.6,1.2-4.56,4.17-9.32,8.91-14.41,4.75-5.08,13.11-11.99,25.03-20.79l-.9-3.08c-2.26-7.75-5.03-12.71-8.35-14.88-3.32-2.17-7.33-2.57-12-1.2-3.55,1.04-6.11,2.85-7.65,5.38-1.59,2.54-2.01,5.1-1.28,7.57l1.63,4.89c.76,2.61.7,4.81-.25,6.61-.95,1.79-2.45,3.05-4.6,3.67-2.15.63-4.05.37-5.77-.69-1.79-1.1-3.03-2.91-3.77-5.43-1.42-4.85-.25-10.06,3.54-15.62,3.81-5.52,10.21-9.62,19.21-12.25,6.91-2.02,12.89-2.5,18.01-1.46,3.88.79,7.1,2.79,9.79,6.11,1.74,2.13,3.71,6.97,5.9,14.48l7.72,26.41c2.17,7.42,3.63,11.91,4.4,13.51.77,1.6,1.57,2.58,2.38,2.95.82.37,1.65.43,2.49.18.89-.26,1.63-.68,2.2-1.3.95-1.09,2.68-3.82,5.05-8.21l1.39,4.76c-3.86,10.35-8.69,16.37-14.48,18.06-2.75.81-5.28.48-7.47-.96-2.19-1.44-4-4.5-5.44-9.1l.03-.06ZM329.74,269.4l-8.66-29.63c-7.55,5.9-12.4,9.9-14.45,12.07-3.76,3.78-6.21,7.34-7.34,10.6-1.12,3.27-1.23,6.54-.29,9.76,1.19,4.06,3.4,7.11,6.61,9.11,3.22,2,6.4,2.49,9.57,1.56,4.29-1.26,9.15-5.76,14.51-13.46h.05Z"/>
        </g>
      </g>
    </g>
  </g>
</svg>
